X:1
T:Title
%%score { ( 1 3 ) | ( 2 4 ) }
L:1/8
M:6/8
K:Ab
V:1 treble nm="Grand Piano"
V:3 treble 
V:2 bass 
V:4 bass 
V:1
 z3 z2[Q:1/4=81] [CE] | [Ec]>[DB][CA] [CE][_C=D][=CE] | [DF][EG][FA] [CE]2 [CE] | %3
 [CA]>[CA][CA] [Ec]>[EB][EA] | B6 | [Ec]>[DB][CA] [CE][_C=D][=CE] |[M:5/8] [DF][EG][FA] [CE]2 | %7
[M:1/8] [_CF] |[M:3/4] G>_G =G[=DA] [EG][DA] | [DB]6 | [CE]>[_C=D] [=CE] [_DF]2 [CE] | %11
 [Ee]4[K:bass][K:treble] z2 | E=D E F2 d | c6 | c>d c =A2 [=A,F] | [B,FB]2 [Fc] [Fd]3 | %16
 [=Dc]>[DB] [DA][DF] [DG][DA] | [DB]6 | [CE]>[_C=D] [=CE] [DF]2 [CE] |[M:15/16] e3 z3/2 z3 | %20
[M:3/4] cE d c2 B |[M:5/8] [CA]-[CA]- [CA]3 |] %22
V:2
 z3 z2 [A,,A,] | [A,,A,]>[A,,A,][A,,A,] [A,,A,][A,,A,][A,,A,] | %2
 [D,A,][D,A,][D,A,] [A,,A,]2 [A,,A,] | [A,,E,]>[A,,E,][A,,E,] [A,,A,]>[B,,G,][C,A,] | E3 z3 | %5
 [A,,A,]>[A,,A,][A,,A,] [A,,A,][A,,A,][A,,A,] |[M:5/8] [D,A,][D,A,][D,A,] [A,,A,]2 | %7
[M:1/8] [A,,A,] |[M:3/4] [B,,E,B,]>[B,,E,B,] [B,,E,B,][B,,F,] [B,,B,][B,,F,] | [E,G,]6 | %10
 [A,,A,]>[A,,A,] [A,,A,] [A,,A,]2 [A,,A,] | A,4 z2 | [E,G,B,][E,G,B,] [E,G,B,] [E,B,D]2 [G,B,E] | %13
 [A,E]3 [G,B,]3 | [F,=A,E]>[F,A,E] [F,A,E] [F,CE]2 F,/E,/ | D,2 [C,=A,] [B,,B,]3 | %16
 [B,,A,]>[B,,A,] [B,,F,][B,,B,] [B,,B,][B,,F,] | [E,G,]6 | %18
 [A,,A,]>[A,,A,] [A,,A,] [A,,A,]2 [A,,A,] |[M:15/16] [C,A,]3 [D,A,]3/2- [D,A,]3 | %20
[M:3/4] [E,A,E][E,A,C] [E,G,E] [E,A,E]2 [E,G,D] |[M:5/8] [A,,E,A,]-[A,,E,A,]- [A,,E,A,]3 |] %22
V:3
 x6 | x6 | x6 | x6 | z3 D2 [CE] | x6 |[M:5/8] x5 |[M:1/8] x |[M:3/4] x6 | x6 | x6 | %11
 z2[K:bass] _C,[K:treble] [Ed]3 | x6 | z2 z =E3 | x6 | x6 | x6 | x6 | x6 | %19
[M:15/16] E->E_G[Fd]3/2- [Fd]3 |[M:3/4] x6 |[M:5/8] x5 |] %22
V:4
 x6 | x6 | x6 | x6 | [E,G,]3- [E,G,]2 [A,,A,] | x6 |[M:5/8] x5 |[M:1/8] x |[M:3/4] x6 | x6 | x6 | %11
 C,2 z [B,,G,]3 | x6 | x6 | x6 | x6 | x6 | x6 | x6 |[M:15/16] x15/2 |[M:3/4] x6 |[M:5/8] x5 |] %22

